icons/exponent/exponent.svg

<svg width="14" height="14" viewBox="0 0 14 14" fill="none"
    xmlns="http://www.w3.org/2000/svg">
    <path d="M6.86553 5.01844C7.13157 4.94454 7.40683 5.10007 7.48076 5.3661C7.5546 5.63214 7.39914 5.90744 7.13311 5.98134C5.15209 6.53196 5.09028 9.27062 6.94756 9.9579L7.13311 10.0184L7.22783 10.0546C7.43483 10.1605 7.54542 10.4009 7.48076 10.6337C7.40671 10.8995 7.13148 11.0552 6.86553 10.9813C5.98801 10.7375 5.36711 10.2019 4.99932 9.54579C4.63148 10.2017 4.01145 10.7376 3.13408 10.9813C2.86812 11.0552 2.59289 10.8996 2.51885 10.6337C2.45419 10.4009 2.56478 10.1605 2.77178 10.0546L2.8665 10.0184L3.05205 9.9579C4.90947 9.27067 4.84766 6.5319 2.8665 5.98134C2.60048 5.90744 2.44503 5.63213 2.51885 5.3661C2.59278 5.10007 2.86804 4.94454 3.13408 5.01844C4.0112 5.26219 4.63146 5.79731 4.99932 6.45302C5.36712 5.79712 5.98826 5.26226 6.86553 5.01844Z" fill="red"/>
    <path d="M11 3C11.2761 3 11.5 3.22386 11.5 3.5V5.5C11.5 5.77614 11.2761 6 11 6C10.8612 6 10.7361 5.94291 10.6455 5.85156C10.4497 5.94524 10.2315 6 10 6C9.17157 6 8.5 5.32843 8.5 4.5C8.5 3.67157 9.17157 3 10 3C10.2314 3 10.4498 3.0539 10.6455 3.14746C10.7361 3.0564 10.8614 3 11 3ZM10 4C9.72386 4 9.5 4.22386 9.5 4.5C9.5 4.77614 9.72386 5 10 5C10.2761 5 10.5 4.77614 10.5 4.5C10.5 4.22386 10.2761 4 10 4Z" fill="green"/>
</svg>

<svg xmlns="http://www.w3.org/2000/svg" width="14" height="14" fill="none" viewBox="0 0 14 14"><path fill="red" d="M6.866 5.018a.5.5 0 1 1 .267.963c-1.98.551-2.043 3.29-.185 3.977l.185.06.095.037a.5.5 0 0 1-.362.926c-.878-.243-1.499-.78-1.867-1.435-.368.656-.988 1.192-1.865 1.435a.5.5 0 0 1-.362-.926l.095-.037.185-.06c1.857-.687 1.796-3.426-.186-3.977a.5.5 0 1 1 .268-.963c.877.244 1.497.78 1.865 1.435.368-.656.99-1.19 1.867-1.435"/><path fill="green" d="M11 3a.5.5 0 0 1 .5.5v2a.5.5 0 0 1-.854.352 1.5 1.5 0 1 1 0-2.704A.5.5 0 0 1 11 3m-1 1a.5.5 0 1 0 0 1 .5.5 0 0 0 0-1"/></svg>
